docs/img/layout/Twitter.svg

<?xml version="1.0" encoding="UTF-8"?>
<svg width="66px" height="66px" viewBox="0 0 66 66" version="1.1" xmlns="http://www.w3.org/2000/svg" xmlns:xlink="http://www.w3.org/1999/xlink">
    <!-- Generator: Sketch 49.3 (51167) - http://www.bohemiancoding.com/sketch -->
    <title>Twitter</title>
    <desc>Created with Sketch.</desc>
    <defs></defs>
    <g id="Page-1" stroke="none" stroke-width="1" fill="none" fill-rule="evenodd">
        <g id="Hasura_Jun29-Update" transform="translate(-1066.000000, -872.000000)">
            <g id="Group-6" transform="translate(1066.000000, 872.000000)">
                <g id="Twitter">
                    <g>
                        <path d="M0,33 C0,14.7746024 14.7746024,0 33,0 C51.2253976,0 66,14.7746024 66,33 C66,51.2253976 51.2253976,66 33,66 C14.7746024,66 0,51.2253976 0,33 Z" id="back" fill="#55ACEE"></path>
                        <path d="M32.5362646,26.7393379 L32.6058642,27.8966431 L31.4458703,27.7549322 C27.2234923,27.2117073 23.5347116,25.3694664 20.4027279,22.2754464 L18.8715359,20.7402457 L18.477138,21.8739324 C17.6419423,24.401109 18.1755395,27.0699965 19.9155304,28.8650005 C20.8435256,29.8569763 20.6347267,29.9986872 19.033935,29.4082253 C18.477138,29.2192775 17.9899405,29.0775667 17.9435407,29.1484221 C17.7811416,29.3137514 18.3379387,31.4630325 18.7787364,32.3132975 C19.3819332,33.4942212 20.6115268,34.6515264 21.9571198,35.3364621 L23.0939139,35.879687 L21.7483209,35.9033055 C20.4491277,35.9033055 20.4027279,35.9269239 20.5419272,36.4229119 C21.0059248,37.9581126 22.8387152,39.5877873 24.8803045,40.2963415 L26.318697,40.7923294 L25.0659036,41.5481205 C23.2099133,42.6345703 21.0291246,43.2486506 18.848336,43.2958876 C17.8043415,43.319506 16.9459459,43.4139799 16.9459459,43.4848353 C16.9459459,43.7210201 19.7763312,45.0436546 21.4235226,45.563261 C26.3650968,47.0984617 32.2346662,46.4371445 36.6426431,43.815494 C39.7746268,41.9496346 42.9066105,38.2415343 44.3682028,34.6515264 C45.1569987,32.7384301 45.9457946,29.242896 45.9457946,27.5659844 C45.9457946,26.4795347 46.0153942,26.3378238 47.3145874,25.0388078 C48.0801834,24.2830167 48.7993797,23.4563701 48.938579,23.2201854 C49.1705778,22.7714344 49.1473779,22.7714344 47.9641841,23.1729484 C45.9921943,23.8815026 45.7137958,23.7870287 46.6881907,22.7241974 C47.407387,21.9684063 48.2657825,20.5985348 48.2657825,20.1970208 C48.2657825,20.1261654 47.9177843,20.2442577 47.5233864,20.456824 C47.1057885,20.6930087 46.1777934,21.0472858 45.481797,21.2598521 L44.2290035,21.6613661 L43.0922095,20.8819565 C42.4658128,20.456824 41.5842174,19.9844545 41.1202198,19.8427437 C39.937026,19.5120851 38.1274354,19.559322 37.060241,19.9372176 C34.1602561,21.0000489 32.3274657,23.7397918 32.5362646,26.7393379 Z" id="Shape" fill="#FFFFFF"></path>
                    </g>
                </g>
            </g>
        </g>
    </g>
</svg>

<svg width="66" height="66" xmlns="http://www.w3.org/2000/svg"><g fill="none" fill-rule="evenodd"><path d="M0 33C0 14.775 14.775 0 33 0s33 14.775 33 33-14.775 33-33 33S0 51.225 0 33z" fill="#55ACEE"/><path d="M32.536 26.74l.07 1.157-1.16-.142c-4.223-.543-7.911-2.386-11.043-5.48l-1.531-1.535-.395 1.134c-.835 2.527-.301 5.196 1.439 6.991.928.992.719 1.134-.882.543-.557-.189-1.044-.33-1.09-.26-.163.166.394 2.315.835 3.165.603 1.181 1.833 2.339 3.178 3.023l1.137.544-1.346.023c-1.299 0-1.345.024-1.206.52.464 1.535 2.297 3.165 4.338 3.873l1.439.496-1.253.756a12.98 12.98 0 01-6.218 1.748c-1.044.024-1.902.118-1.902.189 0 .236 2.83 1.559 4.478 2.078 4.941 1.535 10.81.874 15.219-1.748 3.132-1.865 6.264-5.573 7.725-9.163.789-1.914 1.578-5.41 1.578-7.086 0-1.086.07-1.228 1.369-2.527.765-.756 1.484-1.583 1.624-1.819.232-.449.208-.449-.975-.047-1.972.709-2.25.614-1.276-.449.72-.756 1.578-2.125 1.578-2.527 0-.07-.348.047-.743.26-.417.236-1.345.59-2.041.803l-1.253.401-1.137-.779c-.626-.425-1.508-.898-1.972-1.04-1.183-.33-2.993-.283-4.06.095-2.9 1.063-4.733 3.803-4.524 6.802z" fill="#FFF"/></g></svg>
